X: 36316
T: Seamus O'Sullivan's
R: hornpipe
M: 4/4
K: Cmajor
|:(3GAB|c2 G2 EGcG|(3AcA (3FE_E DBBA|(3GAG (3FGF (3EFE (3DED|(3CDE (3FGA G2 (3GAB|
c2 G2 EGcG|(3AcA (3FE_E DBBA|(3GAG (3FGF (3EFE (3DED|C2 CB, C2:|
|:ED|C2 EG cGEG|F2 Ac fc (3A^AB|cBcd ecGc|Addc dfed|
c2 cd (3efg ec|fedc BcdB|cGEC B,DGF|(3EDC (3DCB, C2:|

